src/fullscreen.svg

<svg viewBox="0 0 16 16" fill="none" xmlns="http://www.w3.org/2000/svg"><path fill-rule="evenodd" clip-rule="evenodd" d="M5.5 2v1H3.89l2.44 2.43-.71.71L3 3.5v2H2V2h3.5Zm5 1V2H14v3.5h-1V3.71l-2.53 2.52-.7-.7L12.29 3H10.5Zm2.5 9.11-2.44-2.44-.7.71L12.48 13h-2v1H14v-3.5h-1v1.61Zm-10 .18 2.53-2.52.7.7L3.71 13H5.5v1H2v-3.5h1v1.79Z" fill="#111111"/></svg>

<svg viewBox="0 0 16 16" fill="none" xmlns="http://www.w3.org/2000/svg"><path fill-rule="evenodd" clip-rule="evenodd" d="M5.5 2V3H3.89L6.33 5.43L5.62 6.14L3 3.5V5.5H2V2H5.5ZM10.5 3V2H14V5.5H13V3.71L10.47 6.23L9.76999 5.53L12.29 3H10.5ZM13 12.11L10.56 9.67001L9.85999 10.38L12.48 13H10.48V14H14V10.5H13V12.11ZM3 12.29L5.53 9.76999L6.23 10.47L3.71 13H5.5V14H2V10.5H3V12.29Z" fill="#111111"/></svg>
